bitmaps_png/sources/lang_en.svg

<?xml version="1.0" encoding="UTF-8" standalone="no"?>
<svg
   xmlns:dc="http://purl.org/dc/elements/1.1/"
   xmlns:cc="http://creativecommons.org/ns#"
   xmlns:rdf="http://www.w3.org/1999/02/22-rdf-syntax-ns#"
   xmlns:svg="http://www.w3.org/2000/svg"
   xmlns="http://www.w3.org/2000/svg"
   xmlns:sodipodi="http://sodipodi.sourceforge.net/DTD/sodipodi-0.dtd"
   xmlns:inkscape="http://www.inkscape.org/namespaces/inkscape"
   height="16"
   width="16"
   version="1.1"
   viewBox="0 0 0.8 0.8"
   id="svg2"
   inkscape:version="0.48.4 r9939"
   sodipodi:docname="lang_en.svg">
  <metadata
     id="metadata23">
    <rdf:RDF>
      <cc:Work
         rdf:about="">
        <dc:format>image/svg+xml</dc:format>
        <dc:type
           rdf:resource="http://purl.org/dc/dcmitype/StillImage" />
      </cc:Work>
    </rdf:RDF>
  </metadata>
  <defs
     id="defs21" />
  <sodipodi:namedview
     pagecolor="#ffffff"
     bordercolor="#666666"
     borderopacity="1"
     objecttolerance="10"
     gridtolerance="10"
     guidetolerance="10"
     inkscape:pageopacity="0"
     inkscape:pageshadow="2"
     inkscape:window-width="1162"
     inkscape:window-height="857"
     id="namedview19"
     showgrid="true"
     inkscape:zoom="39.8125"
     inkscape:cx="8"
     inkscape:cy="8"
     inkscape:window-x="0"
     inkscape:window-y="0"
     inkscape:window-maximized="0"
     inkscape:current-layer="svg2">
    <inkscape:grid
       type="xygrid"
       id="grid3000"
       empspacing="5"
       visible="true"
       enabled="true"
       snapvisiblegridlinesonly="true" />
  </sodipodi:namedview>
  <clipPath
     id="a">
    <path
       d="m 30,15 h 30 v 15 z m 0,0 V 30 H 0 z m 0,0 H 0 V 0 z m 0,0 V 0 h 30 z"
       id="path5"
       inkscape:connector-curvature="0" />
  </clipPath>
  <g
     id="g3007"
     transform="matrix(1.2374554,0,0,1,-0.0042367,0)">
    <path
       d="m 0.00508757,0.10507511 v 0.58887 h 0.6443148 v -0.58887 z"
       id="path9"
       inkscape:connector-curvature="0"
       style="fill:#00247d" />
    <path
       d="m 0.00383168,0.10507511 0.6443148,0.58887 m 0,-0.58887 -0.6443148,0.58887"
       id="path11"
       inkscape:connector-curvature="0"
       style="stroke:#ffffff;stroke-width:0.08711115" />
    <path
       d="M 0,0 60,30 M 60,0 0,30"
       clip-path="url(#a)"
       transform="matrix(0.01073858,0,0,0.019629,0.00508757,0.10507511)"
       id="path13"
       inkscape:connector-curvature="0"
       style="stroke:#cf142b;stroke-width:4" />
    <path
       d="m 0.32724497,0.10507511 v 0.58887 m -0.3221574,-0.294435 h 0.6443148"
       id="path15"
       inkscape:connector-curvature="0"
       style="stroke:#ffffff;stroke-width:0.14518526" />
    <path
       d="m 0.32724497,0.10507511 v 0.58887 m -0.3221574,-0.294435 h 0.6443148"
       id="path17"
       inkscape:connector-curvature="0"
       style="stroke:#cf142b;stroke-width:0.08711115" />
  </g>
</svg>

<svg xmlns="http://www.w3.org/2000/svg" height="128" width="128" version="1.1" viewBox="0 0 6.4 6.4">
 <clipPath id="a">
  <path d="m30 15h30v15zv15h-30zh-30v-15zv-15h30z"/>
 </clipPath>
 <g transform="matrix(.10208 0 0 .1125 .125 3.98)">
  <path fill="#00247d" d="m0-23.6v30h60v-30z"/>
  <path stroke-width="6" d="m0-23.6 60 30m0-30-60 30" stroke="#fff"/>
  <path d="m0 0 60 30m0-30-60 30" clip-path="url(#a)" transform="translate(0,-23.6)" stroke="#cf142b" stroke-width="4"/>
  <path stroke-width="10" d="m30-23.6v30m-30-15h60" stroke="#fff"/>
  <path stroke-width="6" d="m30-23.6v30m-30-15h60" stroke="#cf142b"/>
 </g>
</svg>
